res/tubeunit_vent.svg

<?xml version='1.0' encoding='utf-8'?>
<svg xmlns="http://www.w3.org/2000/svg" width="60.96mm" height="128.5mm" viewBox="0 0 60.96 128.5">
  <title>VENT</title>
  <g style="stroke:#000000;stroke-width:0.25;stroke-linecap:round;stroke-linejoin:bevel">
    <path d="m 17.757332,14.812974 q 0.03175,0 0.04939,0.01764 0.02117,0.01764 0.02117,0.04586 0,0.01411 -0.0071,0.03528 l -0.966611,2.324807 q -0.02117,0.04586 -0.06703,0.04586 -0.02117,0 -0.04233,-0.01058 -0.01764,-0.01411 -0.02469,-0.03528 l -0.959556,-2.314223 q -0.01058,-0.02117 -0.01058,-0.04233 0,-0.02822 0.01764,-0.04586 0.02117,-0.02117 0.04939,-0.02117 0.05292,0 0.07761,0.05644 l 0.896057,2.155474 0.899583,-2.166057 q 0.0247,-0.04586 0.06703,-0.04586 z" />
    <path d="m 19.704666,17.141308 q 0.02822,0 0.04939,0.02117 0.02117,0.02117 0.02117,0.04939 0,0.03175 -0.02117,0.05292 -0.02117,0.01764 -0.04939,0.01764 h -1.329973 q -0.02822,0 -0.04939,-0.02117 -0.02117,-0.02117 -0.02117,-0.04939 v -2.328335 q 0,-0.02822 0.02117,-0.04939 0.02117,-0.02117 0.04939,-0.02117 h 1.329973 q 0.02822,0 0.04939,0.02117 0.02117,0.02117 0.02117,0.04939 0,0.03175 -0.02117,0.05292 -0.02117,0.01764 -0.04939,0.01764 h -1.252362 v 0.98425 h 1.093612 q 0.02822,0 0.04939,0.02117 0.02117,0.02117 0.02117,0.04939 0,0.03175 -0.02117,0.05292 -0.02117,0.01764 -0.04939,0.01764 h -1.093612 v 1.061861 z" />
    <path d="m 22.089444,14.812974 q 0.03175,0 0.04939,0.02117 0.01764,0.01764 0.01764,0.04586 v 2.324807 q 0,0.03881 -0.02117,0.05997 -0.02117,0.01764 -0.05292,0.01764 -0.03528,0 -0.05644,-0.02822 l -1.587501,-2.169584 v 2.137834 q 0,0.0247 -0.02117,0.04233 -0.01764,0.01764 -0.04586,0.01764 -0.03175,0 -0.04939,-0.01764 -0.01764,-0.01764 -0.01764,-0.04233 v -2.338918 q 0,-0.03528 0.01764,-0.05292 0.02117,-0.01764 0.04586,-0.01764 0.03175,0 0.05292,0.02469 l 1.601612,2.183696 v -2.141363 q 0,-0.02822 0.01764,-0.04586 0.02117,-0.02117 0.04939,-0.02117 z" />
    <path d="m 24.417773,14.812974 q 0.02822,0 0.04939,0.02117 0.02117,0.01764 0.02117,0.04586 0,0.03175 -0.02117,0.04939 -0.01764,0.01764 -0.04939,0.01764 h -0.786695 v 2.264835 q 0,0.02822 -0.02117,0.04939 -0.02117,0.02117 -0.04939,0.02117 -0.03175,0 -0.05292,-0.02117 -0.01764,-0.02117 -0.01764,-0.04939 v -2.264835 h -0.786695 q -0.02822,0 -0.04939,-0.01764 -0.02117,-0.02117 -0.02117,-0.04939 0,-0.02822 0.02117,-0.04586 0.02117,-0.02117 0.04939,-0.02117 z" />
  </g>
</svg>

<?xml version="1.0" encoding="utf-8"?>
<svg xmlns="http://www.w3.org/2000/svg" width="60.96mm" height="128.50mm" viewBox="0 0 60.96 128.50">
    <path d="M17.8105 14.8429Q17.8105 14.857 17.8034 14.8782L16.8368 17.203Q16.8156 17.2488 16.7698 17.2488Q16.7486 17.2488 16.7292 17.2365Q16.7098 17.2241 16.7028 17.203L15.7432 14.8887Q15.7326 14.8676 15.7326 14.8464Q15.7326 14.8182 15.752 14.7988Q15.7714 14.7794 15.7996 14.7794Q15.8526 14.7794 15.8773 14.8358L16.7733 16.9913L17.6729 14.8253Q17.6976 14.7794 17.7399 14.7794Q17.7717 14.7794 17.7911 14.797Q17.8105 14.8147 17.8105 14.8429ZM19.7578 17.1783Q19.7578 17.21 19.7366 17.2294Q19.7155 17.2488 19.6873 17.2488H18.3573Q18.3291 17.2488 18.3079 17.2277Q18.2867 17.2065 18.2867 17.1783V14.8499Q18.2867 14.8217 18.3079 14.8006Q18.3291 14.7794 18.3573 14.7794H19.6873Q19.7155 14.7794 19.7366 14.8006Q19.7578 14.8217 19.7578 14.8499Q19.7578 14.8817 19.7366 14.9011Q19.7155 14.9205 19.6873 14.9205H18.4349V15.9047H19.5285Q19.5567 15.9047 19.5779 15.9259Q19.5991 15.9471 19.5991 15.9753Q19.5991 16.0071 19.5779 16.0265Q19.5567 16.0459 19.5285 16.0459H18.4349V17.1077H19.6873Q19.7155 17.1077 19.7366 17.1289Q19.7578 17.1501 19.7578 17.1783ZM22.1391 14.8464V17.1712Q22.1391 17.21 22.1179 17.2294Q22.0967 17.2488 22.065 17.2488Q22.0297 17.2488 22.0085 17.2206L20.421 15.051V17.1889Q20.421 17.2136 20.4016 17.2312Q20.3822 17.2488 20.354 17.2488Q20.3223 17.2488 20.3046 17.2312Q20.287 17.2136 20.287 17.1889V14.8499Q20.287 14.8147 20.3064 14.797Q20.3258 14.7794 20.3505 14.7794Q20.3822 14.7794 20.4034 14.8041L22.005 16.9878V14.8464Q22.005 14.8182 22.0244 14.7988Q22.0438 14.7794 22.072 14.7794Q22.1038 14.7794 22.1214 14.7988Q22.1391 14.8182 22.1391 14.8464ZM24.4709 14.8464Q24.4709 14.8782 24.4515 14.8958Q24.4321 14.9134 24.4004 14.9134H23.6137V17.1783Q23.6137 17.2065 23.5925 17.2277Q23.5713 17.2488 23.5431 17.2488Q23.5114 17.2488 23.492 17.2277Q23.4726 17.2065 23.4726 17.1783V14.9134H22.6859Q22.6576 14.9134 22.6365 14.894Q22.6153 14.8746 22.6153 14.8464Q22.6153 14.8182 22.6365 14.7988Q22.6576 14.7794 22.6859 14.7794H24.4004Q24.4286 14.7794 24.4498 14.7988Q24.4709 14.8182 24.4709 14.8464Z" style="stroke:#000000;stroke-width:0.25;stroke-linecap:round;stroke-linejoin:bevel" />
</svg>
